X:1
T: Mrs. Dorothy Johnstone
C:Muriel A. Johnstone
R:Reel
%Q: 232
K:A
M:4/4
L:1/8
|:cd|ef ed c2 e2|d2 B2 G2 E2|A2 GA B2 AB|c2 e2 f2 a2|
e3d c2 e2|d2 B2 G2 E2|A2 GA B2 AB|c2 A2 A2:|
e2|a3A c2 e2|f3g a2 f2|e2 a2 a2 ga|b2 B2 B2 e2|
a3A c2 e2|f3g a2 f2|e2 A2 B2 AB|c2 A2 A2 e2|
a3A c2 e2|f3g a2 f2|e2 ce d2 Bd|c2 Ac B2 E2|
AG AB c2 A2|F2 A2 d2 f2|e2 A2 B2 AB|c2 A2 A2||
